img/error-title-lines.svg

<svg width="286" height="31" viewBox="0 0 286 31" fill="none" xmlns="http://www.w3.org/2000/svg">
<path d="M6.20516 15.4615C8.44437 15.4615 10.7902 15.3004 13.0294 15.1394C13.9891 15.1394 14.8421 14.9783 15.8018 14.9783C19.8537 14.6562 23.9056 14.3341 27.9575 14.012C32.8624 13.6899 37.6608 13.2067 42.5657 12.8846C49.4966 12.2403 56.4275 11.7572 63.3584 11.1129C64.9578 10.9519 66.5572 10.9519 68.1567 10.7908C72.2086 10.4687 76.2605 10.1466 80.3124 9.98554C84.3643 9.66342 88.4162 9.34131 92.4681 9.18025C94.0676 9.0192 95.667 8.85814 97.2664 8.85814C103.664 8.53603 110.169 8.21391 116.566 7.8918C120.512 7.73074 124.457 7.56968 128.509 7.24757C130.108 7.24757 131.601 7.08651 133.2 7.08651C139.385 6.92545 145.676 6.7644 151.861 6.60334C158.045 6.44228 164.123 6.28123 170.307 6.12017C171.907 6.12017 173.506 6.12017 175.212 6.12017C179.264 6.12017 183.21 6.12017 187.261 6.12017C193.553 6.12017 199.737 6.12017 206.028 5.95911C208.054 5.95911 210.08 5.95911 212.106 5.95911C216.371 5.95911 220.636 5.95911 224.901 5.95911C225.221 5.95911 225.648 5.95911 225.968 5.95911C216.371 6.12017 206.668 6.28123 197.071 6.60334C193.019 6.7644 189.074 6.7644 185.022 6.92545C183.316 6.92545 181.503 6.92545 179.797 7.08651C173.933 7.24757 168.175 7.56968 162.31 7.73074C155.593 8.05285 148.875 8.21391 142.157 8.53602C140.984 8.53602 139.918 8.69708 138.745 8.69708C135.12 9.0192 131.601 9.18025 127.976 9.50237C120.725 9.98554 113.474 10.4687 106.223 10.9519C105.157 10.9519 104.091 11.1129 103.024 11.274C99.5056 11.5961 95.8803 12.0793 92.3615 12.4014C85.9637 13.0456 79.6726 13.6899 73.2749 14.3341C71.5688 14.4951 69.7561 14.8173 68.0501 14.9783C63.9981 15.4615 59.9462 15.9447 55.8943 16.5889C50.7761 17.2331 45.5513 17.8773 40.4331 18.5216C33.289 19.4879 26.0382 20.4542 18.894 21.4206C17.188 21.5816 15.4819 21.9038 13.6692 22.0648C10.577 22.548 7.48471 23.0312 4.39246 23.5143C4.07257 23.5143 3.75269 23.8364 3.75269 24.4807C3.75269 24.9638 4.07257 25.447 4.39246 25.447C5.56538 25.447 6.63167 25.6081 7.80459 25.6081C7.59134 26.4134 7.48471 26.8965 7.48471 27.3797C7.48471 29.1513 8.44437 30.7619 9.72392 30.7619C18.5741 29.9566 27.3177 28.9903 36.1679 28.346C43.8452 27.8629 51.5225 27.2186 59.1998 26.7355C67.6235 26.0912 76.1539 25.447 84.5776 24.9638C87.2433 24.8028 89.909 24.6417 92.5748 24.3196C93.3212 24.3196 94.0676 24.1586 94.9206 24.1586C108.569 23.6754 122.218 23.0312 135.866 22.548C143.117 22.2259 150.474 21.9038 157.725 21.7427C160.391 21.5816 162.95 21.5816 165.616 21.4206C179.584 21.0985 193.553 20.7764 207.521 20.4542C213.492 20.2932 219.463 20.1321 225.435 19.9711C230.553 19.81 235.671 19.81 240.789 19.4879C245.054 19.3268 249.213 19.0047 253.478 18.8437C255.611 18.6826 257.743 18.6826 259.769 18.5216C264.568 18.0384 269.366 17.5552 274.164 17.072C273.844 17.7163 273.844 18.6826 273.951 19.3268C274.058 20.1321 274.377 20.7764 274.911 21.0985C275.337 21.4206 275.977 21.7427 276.403 21.4206C277.47 20.7764 278.536 20.1321 279.496 19.4879C279.496 19.4879 279.496 19.4879 279.389 19.4879C279.496 19.4879 279.496 19.3268 279.602 19.3268C279.709 19.3268 279.816 19.1658 279.816 19.1658H279.709C280.242 18.8437 280.775 18.5216 281.415 18.0384C281.948 17.7163 282.588 17.2331 283.121 16.911C283.761 16.4278 284.294 15.9446 284.934 15.4615C285.573 14.9783 286 13.6899 286 12.5625C286 11.9182 285.893 11.4351 285.68 10.7908C285.467 10.1466 284.934 9.34131 284.401 9.18025C283.867 9.0192 283.334 8.85814 282.801 8.85814C282.695 8.85814 282.588 8.85814 282.481 8.85814C282.161 8.85814 281.735 8.85814 281.415 9.0192C280.562 9.18025 279.816 9.34131 278.962 9.34131C278.323 9.34131 277.683 9.50237 276.937 9.50237C275.124 9.66342 273.418 9.82448 271.605 10.1466C271.179 10.1466 270.645 10.3077 270.219 10.3077C270.432 9.98554 270.539 9.66342 270.539 9.34131C270.645 9.0192 270.645 8.69708 270.645 8.37497C270.645 8.21391 270.645 7.8918 270.752 7.73074C270.752 7.40863 270.752 7.08651 270.645 6.92545C270.645 6.92545 270.752 6.92545 270.752 6.7644C271.072 6.44228 271.392 6.12017 271.605 5.47594C271.818 4.99277 271.925 4.34854 271.925 3.70431C271.925 3.06008 271.818 2.57691 271.605 1.93269C271.498 1.77163 271.392 1.44951 271.285 1.28846C270.965 0.805285 270.645 0.644228 270.326 0.483171C269.686 0.161057 268.939 0 268.193 0C267.553 0 267.02 0 266.38 0C265.527 0 264.674 0 263.821 0C262.648 0 261.369 0 260.196 0C256.997 0 253.798 0 250.599 0C247.614 0 244.521 0 241.536 0C238.763 0 236.098 0 233.325 0C222.342 0 211.466 0.161057 200.483 0.322114C192.273 0.483171 184.063 0.644228 175.852 0.644228C172.227 0.644228 168.495 0.805285 164.869 0.966343C156.659 1.28846 148.448 1.44951 140.238 1.77163C137.892 1.77163 135.546 1.93269 133.2 1.93269C131.814 1.93269 130.535 2.09374 129.149 2.09374C121.045 2.57691 112.941 3.06008 104.837 3.54326C102.385 3.70431 99.9322 3.86537 97.3731 4.02643C95.9869 4.02643 94.6007 4.18748 93.2145 4.34854C85.1107 4.99277 77.1135 5.637 69.0097 6.28123C64.8512 6.60334 60.6926 6.92545 56.5341 7.40863C49.39 8.05285 42.2458 8.69708 35.2083 9.50237C29.0238 10.1466 22.8393 10.6298 16.6548 11.1129C15.6951 11.274 14.7355 11.274 13.6692 11.4351C12.0698 11.5961 10.4703 11.5961 8.87088 11.7572C7.48471 12.4014 5.9919 12.4014 4.60572 12.4014C4.49909 11.7572 4.07257 11.274 3.75269 11.4351C2.79302 11.4351 1.93999 11.5961 0.980328 11.7572C0.553812 11.9182 0.127295 12.2403 0.0206663 12.8846C-0.0859628 13.6899 0.233925 14.4951 0.660441 14.6562C1.08696 14.8173 1.51347 14.9783 1.93999 15.1394C2.36651 15.3004 2.68639 15.3004 3.11291 15.3004C4.1792 15.4615 5.13886 15.4615 6.20516 15.4615ZM255.717 10.3077C256.997 10.3077 258.383 10.3077 259.663 10.3077C259.769 10.7908 259.982 11.1129 260.196 11.4351C259.663 11.4351 259.129 11.5961 258.703 11.5961C257.743 11.5961 256.784 11.7572 255.824 11.7572C251.559 11.9182 247.4 12.2403 243.135 12.4014C241.216 12.5625 239.296 12.7235 237.377 12.7235C234.392 12.7235 231.299 12.8846 228.314 12.8846C221.383 13.0456 214.558 13.2067 207.628 13.3677C194.192 13.6899 180.864 14.012 167.428 14.3341C157.832 14.4951 148.235 14.9783 138.639 15.4615C124.244 16.1057 109.742 16.5889 95.3471 17.2331C92.4681 17.3942 89.5891 17.5552 86.7102 17.8773C78.4997 18.5216 70.2893 19.0047 62.0788 19.649C54.0816 20.2932 45.9778 20.7764 37.9806 21.4206C37.2342 21.4206 36.4878 21.5816 35.7414 21.5816C37.874 21.2595 40.1132 21.0985 42.2458 20.7764C49.8165 19.9711 57.3871 19.0047 64.9578 18.1995C67.6235 17.8773 70.2893 17.5552 72.8484 17.2331C74.2345 17.0721 75.6207 16.911 76.9003 16.911C84.8975 16.2668 92.788 15.4615 100.679 14.8173C102.171 14.6562 103.771 14.4951 105.264 14.3341C107.503 14.173 109.742 14.012 111.875 14.012C119.978 13.5288 128.082 13.0456 136.186 12.5625C137.999 12.4014 139.811 12.4014 141.518 12.2403C141.944 12.2403 142.477 12.2403 142.904 12.2403C144.183 12.2403 145.463 12.2403 146.636 12.0793C154.74 11.7572 162.95 11.5961 171.054 11.274C174.786 11.1129 178.518 10.9519 182.25 10.9519C194.299 10.7908 206.455 10.6298 218.504 10.4687C231.086 10.4687 243.455 10.3077 255.717 10.3077Z" fill="#710C0C"/>
</svg>

<svg width="286" height="31" fill="none" xmlns="http://www.w3.org/2000/svg"><path d="M6.205 15.461c2.24 0 4.585-.16 6.824-.322.96 0 1.813-.16 2.773-.16l12.155-.967c4.905-.322 9.704-.805 14.609-1.127 6.93-.645 13.861-1.128 20.792-1.772 1.6-.161 3.2-.161 4.799-.322 4.052-.322 8.103-.644 12.155-.805 4.052-.323 8.104-.645 12.156-.806 1.6-.16 3.199-.322 4.798-.322 6.398-.322 12.903-.644 19.3-.966 3.946-.161 7.891-.322 11.943-.644 1.599 0 3.092-.161 4.691-.161 6.185-.162 12.476-.323 18.661-.484 6.184-.16 12.262-.322 18.446-.483h16.954c6.292 0 12.476 0 18.767-.16h19.94c-9.597.16-19.3.321-28.897.643-4.052.161-7.997.161-12.049.322-1.706 0-3.519 0-5.225.162-5.864.16-11.622.483-17.487.644-6.717.322-13.435.483-20.153.805-1.173 0-2.239.161-3.412.161-3.625.322-7.144.483-10.769.805l-21.753 1.45c-1.066 0-2.132.16-3.199.322-3.518.322-7.144.805-10.662 1.127-6.398.645-12.69 1.289-19.087 1.933-1.706.161-3.519.483-5.225.644-4.052.483-8.104.967-12.156 1.61-5.118.645-10.343 1.29-15.46 1.934-7.145.966-14.396 1.932-21.54 2.899-1.706.16-3.412.483-5.225.644l-9.277 1.45c-.32 0-.64.321-.64.966 0 .483.32.966.64.966 1.173 0 2.24.161 3.413.161-.214.805-.32 1.288-.32 1.772 0 1.771.96 3.382 2.239 3.382 8.85-.805 17.594-1.772 26.444-2.416 7.677-.483 15.355-1.127 23.032-1.61 8.424-.645 16.954-1.289 25.378-1.772 2.665-.161 5.331-.322 7.997-.644.746 0 1.493-.161 2.346-.161 13.648-.484 27.297-1.128 40.945-1.611 7.251-.322 14.608-.644 21.859-.805 2.666-.161 5.225-.161 7.891-.322l41.905-.967 17.914-.483c5.118-.161 10.236-.161 15.354-.483 4.265-.161 8.424-.483 12.689-.644 2.133-.161 4.265-.161 6.291-.322l14.395-1.45c-.32.644-.32 1.61-.213 2.255.107.805.426 1.45.96 1.771.426.323 1.066.645 1.492.323 1.067-.645 2.133-1.289 3.093-1.933h-.107c.107 0 .107-.161.213-.161.107 0 .214-.161.214-.161h-.107a18.418 18.418 0 0 0 1.706-1.128c.533-.322 1.173-.805 1.706-1.127.64-.483 1.173-.966 1.813-1.45.639-.483 1.066-1.771 1.066-2.899 0-.644-.107-1.127-.32-1.771-.213-.644-.746-1.45-1.279-1.61-.534-.162-1.067-.323-1.6-.323h-.32c-.32 0-.746 0-1.066.161-.853.161-1.599.322-2.453.322-.639 0-1.279.161-2.025.161-1.813.161-3.519.322-5.332.645-.426 0-.96.16-1.386.16.213-.321.32-.644.32-.966.106-.322.106-.644.106-.966 0-.161 0-.483.107-.644 0-.322 0-.644-.107-.806 0 0 .107 0 .107-.16.32-.323.64-.645.853-1.29.213-.482.32-1.126.32-1.77 0-.645-.107-1.128-.32-1.772-.107-.161-.213-.483-.32-.645-.32-.483-.64-.644-.959-.805A4.786 4.786 0 0 0 268.193 0h-34.868c-10.983 0-21.859.161-32.842.322-8.21.161-16.42.322-24.631.322-3.625 0-7.357.161-10.983.322-8.21.322-16.421.484-24.631.806-2.346 0-4.692.16-7.038.16-1.386 0-2.665.162-4.051.162l-24.312 1.45c-2.452.16-4.905.321-7.464.482-1.386 0-2.772.161-4.159.323-8.103.644-16.1 1.288-24.204 1.932-4.159.322-8.317.644-12.476 1.128-7.144.644-14.288 1.288-21.326 2.093-6.184.645-12.369 1.128-18.553 1.61-.96.162-1.92.162-2.986.323-1.6.161-3.199.161-4.798.322-1.386.644-2.88.644-4.265.644-.107-.644-.533-1.127-.853-.966-.96 0-1.813.161-2.773.322-.426.161-.853.483-.96 1.128-.106.805.214 1.61.64 1.771l1.28.483c.427.161.746.161 1.173.161 1.066.161 2.026.161 3.092.161zm249.512-5.153h3.946c.106.483.319.805.533 1.127-.533 0-1.067.161-1.493.161-.96 0-1.919.161-2.879.161-4.265.161-8.424.483-12.689.644-1.919.162-3.839.322-5.758.322-2.985 0-6.078.162-9.063.162-6.931.16-13.756.322-20.686.483l-40.2.966c-9.596.161-19.193.644-28.789 1.127-14.395.645-28.897 1.128-43.292 1.772-2.879.161-5.758.322-8.637.644-8.21.645-16.42 1.128-24.631 1.772-7.997.644-16.101 1.127-24.098 1.772-.747 0-1.493.16-2.24.16 2.133-.322 4.372-.482 6.505-.805 7.57-.805 15.141-1.771 22.712-2.576 2.666-.323 5.331-.645 7.89-.967 1.386-.16 2.773-.322 4.052-.322 7.997-.644 15.888-1.45 23.779-2.094 1.492-.16 3.092-.322 4.585-.483 2.239-.161 4.478-.322 6.611-.322l24.311-1.45c1.813-.16 3.625-.16 5.332-.322h1.386c1.279 0 2.559 0 3.732-.16 8.104-.323 16.314-.484 24.418-.806 3.732-.161 7.464-.322 11.196-.322l36.254-.483c12.582 0 24.951-.161 37.213-.161z" fill="#710C0C"/></svg>
